!!!COM: Scarlatti, Domenico
!!!CDT: 1685-1757
!!!OTL: Sonata in C major, L.154, K.235
!!!SCT: K. 235
!!!SCT: L. 154
!!!OMD: Allegro ([quarter-dot]=100)
**kern	**kern	**dynam
*staff2	*staff1	*staff1/2
*Icemba	*Icemba	*
*I"L.154 (K.235)	*I"L.154 (K.235)	*
*>[A,A,B,B]	*>[A,A,B,B]	*>[A,A,B,B]
*>norep[A,B]	*>norep[A,B]	*>norep[A,B]
*>A	*>A	*>A
*clefF4	*clefG2	*
*k[f#]	*k[f#]	*
*G:	*G:	*
*M3/8	*M3/8	*
*MM150	*MM150	*
=1-	=1-	=1-
(8GL	(4.gg	p
8A	.	.
8BJ	.	.
=2	=2	=2
.	(16qqff#	.
8cL	4.ee)	.
8d	.	.
8eJ	.	.
=3	=3	=3
.	(16qqdd	.
8dL	4.cc)	.
8e	.	.
8f#J	.	.
=4	=4	=4
8gL	4.b)	.
8d	.	.
8GJ)	.	.
=5	=5	=5
(8GL	(>4.dd	.
8A	.	.
8BJ	.	.
=6	=6	=6
8cL	4.ee	.
8d	.	.
8eJ	.	.
!!LO:LB:g=z
=7	=7	=7
.	(32qqb	.
8dL	4.aT)	.
8e	.	.
8f#J	.	.
=8	=8	=8
8gL	4g)	.
8d	.	.
8GJ)	8r	.
=9	=9	=9
.	(16qqff#	.
(8GL	4.gg)	.
8A	.	.
8BJ	.	.
=10	=10	=10
.	(16qqdd#	.
8cL	4.ee)	.
8d	.	.
8eJ	.	.
=11	=11	=11
.	(16qqb	.
8dL	4.cc)	.
8e	.	.
8f#J	.	.
=12	=12	=12
.	(16qqa#	.
8gL	4.b)	.
8d	.	.
8GJ)	.	.
=13	=13	=13
.	(16qqcc#	.
(8GL	4.dd)	.
8A	.	.
8BJ	.	.
!!LO:LB:g=z
=14	=14	=14
.	(16qqdd#	.
8cL	4.ee)	.
8d	.	.
8eJ	.	.
=15	=15	=15
.	(32qqb	.
8dL	(4.aT)	.
8e	.	.
8f#J	.	.
=16	=16	=16
8gL	4g)	.
8d	.	.
8GJ)	8r	.
=17	=17	=17
4.r	(16dLL	<
.	16e	.
.	16f#	.
.	16g	.
.	16a	.
.	16bJJ	.
=18	=18	=18
4.r	16ccLL	.
.	16dd	.
.	16ee	.
.	16ff#	.
.	16gg	.
.	16aaJJ	.
=19	=19	=19
*	*^	*
(<8G 8dL	4ryy	16bbLL	f
.	.	16dd	.
8F# 8d)	.	16cc	.
.	.	16aa)	.
8G' 8d'J	(8gg	(16gg	.
.	.	16bJJ	.
!!LO:LB:g=z
=20	=20	=20	=20
4.D	8ggL	4.a)	>
.	16ff#L	.	.
.	16eeJ	.	.
.	8ddJ)	.	]]
*	*v	*v	*
=21	=21	=21
(16DLL	4.r	p
16E	.	<
16F#	.	.
16G	.	.
16A	.	.
16BJJ	.	.
*clefG2	*	*
=22	=22	=22
16cLL	4.r	.
16d	.	.
16e	.	.
16f#	.	.
16g	.	.
16aJJ	.	.
=23	=23	=23
8b'L)	16rff	f
.	16gg'LL	.
8a'	16rff	.
.	16ff#'	.
8g'J	16rff	.
.	16gg'JJ	.
=24	=24	=24
.	(8qqgg	.
!	!LO:TX:c:i:t=poco rit.	!
4.d	4.aa)	.
*clefF4	*	*
=25	=25	=25
!	!LO:TX:c:i:t=a tempo	!
(<4.F# 4.d	(16aaLL	.
.	16ddd	.
.	16ff#	.
.	16aa	.
.	16dd	.
.	16ff#JJ	.
!!LO:LB:g=z
=26	=26	=26
4.G) 4.d	16bLL	.
.	16dd	.
.	16g	.
.	16b	.
.	16e	.
.	16gJJ	.
=27	=27	=27
4.AA 4.A	16c#LL	.
.	16b	.
.	16a	.
.	16g	.
.	16f#	.
.	16eJJ	.
=28	=28	=28
4.DD 4.D	8.f#mm<L	.
.	16ek	.
.	8f#J)	.
=29	=29	=29
(<4.F# 4.d	(16aaLL	p
.	16ddd	.
.	16ff#	.
.	16aa	.
.	16dd	.
.	16ff#JJ	.
=30	=30	=30
4.G 4.d)	16bLL	.
.	16dd	.
.	16g	.
.	16b	.
.	16e	.
.	16gJJ	.
=31	=31	=31
4.AA 4.A	16c#LL	.
.	16b	.
.	16a	.
.	16g	.
.	16f#	.
.	16eJJ	.
=32	=32	=32
4.DD 4.D	4.dMM<)	.
*clefG2	*	*
!!LO:LB:g=z
=33	=33	=33
(16aLL	8r	f
16dd	.	.
16f#	8r	.
16a	.	.
16d	[8aa	.
16f#JJ	.	.
*clefF4	*	*
=34	=34	=34
16BLL	4aa]	.
16d	.	.
16G	.	.
16B	.	.
16E	[8bb	.
16GJJ	.	.
=35	=35	=35
16C#LL	8bb]	.
16B	.	.
16A	[4bb	.
16G	.	.
16F#	.	.
16EJJ	.	.
=36	=36	=36
4.F#)	16bbLL]	.
.	(16bb	.
.	16aa	.
.	16ggJ	.
.	8aa'J)	.
*clefG2	*	*
=37	=37	=37
(<16aLL	8r	p
16dd	.	<
16f#	8r	.
16a	.	.
16d	[8aa	.
16f#JJ	.	.
*clefF4	*	*
=38	=38	=38
16BLL	4aa]	.
16d	.	.
16G	.	.
16BJJ)	.	.
8GG'	[8bb	f
!!LO:LB:g=z
=39	=39	=39
(4.AA	16bbLL]	.
.	(16bb	.
.	16aa	.
.	16gg	.
.	16ff#	.
.	16eeJJ	.
=40	=40	=40
4.DD 4.D)	4.ddMM)	.
=41	=41	=41
*ped	*	*
4.DD 4.D	(16dddLL	ff
.	16aa	.
.	16ffn	.
.	16dd	.
.	16a	.
.	16fnJJ)	.
=42	=42	=42
(16dLL	8r	.
16A	.	.
16Fn	8r	.
16D	.	.
16AA	([8ffn	.
16DDJJ	.	.
=43	=43	=43
*Xped	*	*
4.BB-	8ffnXL]	.
.	16eeL	.
.	16dd	.
.	16cc#	.
.	16ddJJ)	.
=44	=44	=44
.	(8qqdd	.
4.AA)	4.ee)	.
!!LO:LB:g=z
=45	=45	=45
*ped	*	*
4.DD 4.D	(16dddLL	.
.	16aa	.
.	16ffn	.
.	16dd	.
.	16a	.
.	16fnJJ)	.
=46	=46	=46
(16dLL	8r	.
16A	.	.
16Fn	8r	.
16D	.	.
16AA	([8ffn	.
16DDJJ	.	.
=47	=47	=47
*Xped	*	*
4.BB-	8ffnXL]	.
.	16eeL	.
.	16dd	.
.	16cc#	.
.	16ddJJ)	.
=48	=48	=48
.	(8qqdd	.
4.AA)	4.ee)	.
=49	=49	=49
(<4.Fn 4.d	(16dddLL	f
.	16ffn	.
.	16ee	.
.	16ccc	.
.	16bb-	.
.	16ddJJ	.
=50	=50	=50
4.G 4.d)	16ccLL	.
.	16aa	.
.	16gg	.
.	16b-	.
.	16a	.
.	16ffnJJ	.
!!LO:LB:g=z
=51	=51	=51
4.AA 4.A	16eeLL<	.
.	16g	.
.	16fn	.
.	16dd	.
.	16e	.
.	16cc#JJ	.
=52	=52	=52
4.DD 4.D	4.dd)	.
=53	=53	=53
(<4.Fn 4.d	(16dddLL	p
.	16ffn	.
.	16ee	.
.	16ccc	.
.	16bb-	.
.	16ddJJ	.
=54	=54	=54
4.G 4.d)	16ccLL	.
.	16aa	.
.	16gg	.
.	16b-	.
.	16a	.
.	16ffnJJ	.
=55	=55	=55
4.AA 4.A	16eeLL	.
.	16g	.
.	16fn	.
.	16dd	.
.	16e	.
.	16cc#JJ	.
=56	=56	=56
4DD 4D	8dd')	.
.	4aa	.
8r	.	.
=57	=57	=57
(>16AALL	8r	<
16BB	.	.
16C#	4aaMM	.
16D	.	.
16E	.	.
16F#JJ	.	.
!!LO:LB:g=z
=58	=58	=58
16GLL	8r	.
16A	.	.
16B	4aaMM	.
16c#	.	.
16d	.	.
16eJJ	.	.
=59	=59	=59
8f#'L)	16r	f
.	16aa'LL	.
8e'	16r	.
.	16gg'	.
8d'J	16r	.
.	16ff#'JJ	.
=60	=60	=60
.	(8qqff#	.
4.A	4.ee)	.
=61	=61	=61
(16AALL	8r	p
16BB	.	<
16C#	4aaMM	.
16D	.	.
16E	.	.
16F#JJ	.	.
=62	=62	=62
16GLL	8r	.
16A	.	.
16B	4aaMM	.
16c#	.	.
16d	.	.
16eJJ	.	.
=63	=63	=63
8f#'L)	16r	f
.	16aa'LL	.
8e'	16r	.
.	16gg'	.
8d'J	16r	.
.	16ff#'JJ	.
!!LO:LB:g=z
=64	=64	=64
.	(8qqff#	.
4.A	4.ee)	.
=65	=65	=65
4.AA 4.E 4.A	(16ccc#LL	.
.	16ee	.
.	16ff#	.
.	16ddd	.
.	16ee	.
.	16ccc#JJ	.
=66	=66	=66
4.D 4.F# 4.A	16dddLL	.
.	16ff#	.
.	16ee	.
.	16ccc#)	.
.	(16ccc#	.
.	16dddJJ)	.
=67	=67	=67
4.AA 4.E 4.A	(16cc#LL	.
.	16e	.
.	16f#	.
.	16dd	.
.	16e	.
.	16cc#JJ	.
=68	=68	=68
4.D 4.F# 4.A	16ddLL	.
.	16f#	.
.	16e	.
.	16cc#)	.
.	(<16cc#	.
.	16ddJJ	.
=69	=69	=69
(16c#LL	8ee'L)	.
16E	.	.
16D	8ff#'	.
16d	.	.
16E	8gg'J	.
16c#JJ	.	.
!!LO:LB:g=z
=70	=70	=70
16F#LL	(8aaL	.
16d	.	.
16E	8gg)	.
16c#	.	.
16D	8ff#'J	.
16dJJ)	.	.
=71	=71	=71
(8GL	(16eeLL	.
.	16gg	.
8A)	16ff#	.
.	16ee	.
8AA'J	16dd	.
.	16cc#JJ)	.
=72	=72	=72
(8DL	(16ff#LL	p
.	16a	<
8E	16g	.
.	16ee	.
8F#J	16dd	.
.	16f#JJ	.
=73	=73	=73
8GL	16gLL<	.
.	16ee	.
8A)	16dd	.
.	16f#	.
8AA'J	16e	.
.	16cc#JJ)	.
=74	=74	=74
(8DL	(16ff#LL	.
.	16a	.
8E	16g	.
.	16ee	.
8F#J	16dd	.
.	16f#JJ	.
=75	=75	=75
8GL	16gLL<	.
.	16ee	.
8A)	16dd	.
.	16f#	.
8AA'J	16e	.
.	16cc#JJ	.
=76	=76	=76
4DD 4D	4dd)	f
8r	8r	.
!!LO:LB:g=z
=77:|!|:	=77:|!|:	=77:|!|:
*>B	*>B	*>B
*M6/8	*M6/8	*M6/8
*MM99	*MM99	*MM99
!!!OMD: (Andantino pastorale) ([quarter-dot]=66)
4.DD 4.D	4dd	p
.	8dd	.
*clefG2	*	*
4d 4g 4b	(8.ddMML	.
.	16ccnk	.
8d 8g 8b	8ddJ)	.
=78	=78	=78
4d (4g 4a	(8.ccMML	.
.	16bk	.
8d 8f#) 8a	8ccJ)	.
4d 4g	(8.bmmL<	.
.	16ak	.
8d 8g	8bJ)	.
=79	=79	=79
4d (>4f#	(4cc	.
8d 8g)	8b)	.
4d 4f# 4b	(8.ddMML	<
.	16cc#k	.
8d 8f# 8b	8ddJ)	[[
=80	=80	=80
4c# 4g 4a	(4ff#	>
8c# 8g 8a	8ee)	]]
4d 4f# 4b	(8.ddMML	<
.	16cc#k	.
8d 8f# 8b	8ddJ)	[[
!!LO:LB:g=z
=81	=81	=81
4c# 4g 4a	(4ff#	>
8c# 8g 8a	8ee)	]]
4B 4e 4g 4b	(8.ddMML	<
.	16cc#k	.
8B 8e 8g 8b	8ddJ)	[[
=82	=82	=82
4A# 4e 4f#	(4ff#	>
8A# 8e 8f#	8ee)	]]
4B 4e 4g 4b	(8.ddMML	<
.	16cc#k	.
8B 8e 8g 8b	8ddJ)	[[
=83	=83	=83
4A# 4e 4f#	(4ff#	>
8A# 8e 8f#	8ee)	]]
*	*	*^
4B- 4d 4g	(8.ddMML	<	<
.	16cc#k	.	.
8B- 8d 8g	8ddJ)	[[	.
*	*	*v	*v
=84	=84	=84
4An 4fn 4a	(4ffn	>
8A 8f 8a	8ee)	]]
4B- 4d 4g	(8.ddMML	<
.	16cc#k	.
8B- 8d 8g	8ddJ)	[[
=85	=85	=85
4A 4fn 4a	(4ffn	>
8A 8f 8a	8ee)	]]
4A 4d 4f 4a	(8.ddMML	<
.	16cc#k	.
8A 8d 8f 8a	8ddJ)	[[
!!LO:LB:g=z
=86	=86	=86
4G# 4d 4e	(4ffn	<
8G# 8d	8ee)	[[
4A 4d 4fn	(8.ddMML	>
.	16cc#k	.
8A 8d 8f	8ddJ)	]]
=87	=87	=87
4G# 4d 4e	(4ffn	<
8G# 8d 8e	8ee)	[[
4Gn: 4c: 4d: 4fn:	(8.ddMML	>
.	16ccnk	.
8G 8c 8d 8f	8ddJ)	]]
=88	=88	=88
4G 4c 4e	(4ffn	<
8G 8c 8e	8ee)	[[
4G: 4c: 4d: 4fn:	(8.ddMML	>
.	16ccnk	.
8G 8c 8d 8f	8ddJ)	]]
*clefF4	*	*
=89	=89	=89
*	*^	*
4.C	4.ryy	(4ffn	>
.	.	8ee)	]]
4C 4A	4aa	(8.ff#mmL	f
.	.	16eek	.
8C 8A	8aa	8ff#J)	.
*	*v	*v	*
=90	=90	=90
4BB 4G	8.gg (8.bbmmL	.
.	16ff# 16aak	.
8BB 8G	8gg 8bbJ)	.
4AA 4F#	8.aa (8.cccMML	.
.	16gg 16bbk	.
8AA 8F#	8aa 8cccJ)	.
!!LO:LB:g=z
=91	=91	=91
*	*^	*
4GG\ 4G\	4.ryy	4bb (4ddd	.
8GG\ 8G\	.	8gg 8bb)	.
4BB 4G	(8.bbL	&(4gg	p
.	16ccck	.	.
8BB 8G	[8dddJ	8dd	.
*	*v	*v	*
=92	=92	=92
4C	8.ee 8.dddL]&)	.
.	16ff# 16ccck	.
8C	8gg 8bbJ)	.
4E	8.gg (8.bbL	.
.	16ff# 16aak	.
8E	8ee 8ggJ)	.
=93	=93	=93
.	(<8qqee/ 8qqgg/	.
4.D	4.ff# 4.aa)	.
8r	(4gg	<
4BB	.	.
.	8dd 8bb)	.
=94	=94	=94
8r	4b (4gg	.
4C	.	.
.	8dd 8bb)	.
8r	4b (4gg	.
4D	.	.
.	8dd 8bb)	.
=95	=95	=95
8r	4b (4gg	.
4E	.	.
.	8dd 8bb)	.
8r	(4b 4gg	f
(4BB	.	.
.	8dd 8ddd	.
!!LO:LB:g=z
=96	=96	=96
4C	8.ee) 8.dddL)	.
.	16ff# 16ccck	.
8E	8gg 8bbJ	.
4D	8.gg (8.bbL	.
.	16aa 16ccck	.
8DD)	8ff# 8aaJ)	.
=97	=97	=97
.	(8qqaa	.
(<4.GG 4.G	4.gg)	.
4.BB	(4gg	p
.	8dd 8bb)	<
=98	=98	=98
.	(<8qqaa	.
4.C	(4b 4gg)	.
.	8dd 8bb)	.
.	(<8qqaa	.
4.D	(4b 4gg)	.
.	8dd 8bb)	.
=99	=99	=99
.	(<8qqaa	.
4.E	(4b 4gg)	.
.	8dd 8bb)	.
.	(<8qqaa	.
4.BB	((<4b 4gg)	f
.	8dd [8ddd	.
=100	=100	=100
4C	8ee 8dddL])	.
.	16cccL	.
.	16bb	.
8E	16aa	.
.	16ggJJ)	.
4D	(4.aaT	.
8DD)	.	.
.	32qqggLLL	.
.	32qqaaJJJ	.
!!LO:LB:g=z
=101||	=101||	=101||
*M3/8	*M3/8	*M3/8
*MM150	*MM150	*MM150
(<4.GG\ 4.G\	()16bbLL	f
.	16ddd	.
.	16gg	.
.	16bb	.
.	16ee	.
.	16ggJJ	.
=102	=102	=102
4.C 4.G	16ccLL	.
.	16ee	.
.	16a	.
.	16cc	.
.	16f#	.
.	16aJJ	.
=103	=103	=103
4.D	16dLL)	.
.	(16ee	.
.	16dd	.
.	16cc	.
.	16b	.
.	16aJJ	.
=104	=104	=104
4.GG)	8.bL	.
.	16ak	.
.	8bJ)	.
=105	=105	=105
(<4.BB 4.G	(16bbLL	p
.	16ddd	.
.	16gg	.
.	16bb	.
.	16ee	.
.	16ggJJ	.
!!LO:LB:g=z
=106	=106	=106
4.C 4.G)	16ccLL	.
.	16ee	.
.	16a	.
.	16cc	.
.	16f#	.
.	16aJJ	.
=107	=107	=107
(4.DD 4.D	16d'LL)	.
.	(16ee	.
.	16dd	.
.	16cc	.
.	16b	.
.	16aJJ	.
=108	=108	=108
4.GG)	4.gMM)	.
=109	=109	=109
(16dLL	8r	f
16g	.	.
16B	8r	.
16d	.	.
16G	([8gg	.
16BJJ)	.	.
=110	=110	=110
(4.CC	16ggLL]	.
.	16ff#	.
.	16ee	.
.	16dd	.
.	16cc	.
.	16bJJ	.
=111	=111	=111
4.DD	16aLL	.
.	16g	.
.	16f#	.
.	16e	.
.	16d	.
.	16ccJJ	.
!!LO:LB:g=z
=112	=112	=112
4.GG)	16bLL	.
.	16g	.
.	16b	.
.	16ddJ	.
.	8gg'J)	p
=113	=113	=113
(16dLL	8r	.
16g	.	.
16B	8r	.
16d	.	.
16G	([8gg	.
16BJJ)	.	.
=114	=114	=114
(4.CC	16ggLL]	.
.	16ff#	.
.	16ee	.
.	16dd	.
.	16cc	.
.	16bJJ	.
=115	=115	=115
4.DD	16aLL	.
.	16g	.
.	16f#	.
.	16e	.
.	16d	.
.	16f#JJ	.
=116	=116	=116
4.GG)	16gLL	<
.	16a	.
.	16b	.
.	16cc	.
.	16dd	.
.	16eeJJ	[
=117	=117	=117
4.DD 4.D	(16ff#LL)	f
.	16f#	.
.	16g	.
.	16gg	.
.	16a	.
.	16ff#JJ	.
!!LO:LB:g=z
=118	=118	=118
4.GG 4.G	16ggLL	.
.	16g	.
.	16f#	.
.	16ff#)	.
.	(16ff#	.
.	16ggJJ)	.
=119	=119	=119
(4.DD 4.D	(16f#LL	.
.	16F#	.
.	16G	.
.	16g	.
.	16A	.
.	16f#JJ	.
=120	=120	=120
4.GG)	16gLL	.
.	16G	.
.	16F#	.
.	16f#)	.
.	(<16f#	.
.	16gJJ	.
=121	=121	=121
(16F#LL<	8a'L)	.
16AA	.	.
16GG	8b'	.
16G	.	.
16AA	8cc'J	.
16F#JJ	.	.
=122	=122	=122
16BBLL<	(8ddL	.
16G	.	.
16AA	8cc)	.
16F#	.	.
16GG	8b'J	.
16GJJ)	.	.
=123	=123	=123
(8CL	(16aLL	.
.	16cc	.
8D)	16b	.
.	16a	.
8DD'J	16g	.
.	16f#JJ)	.
!!LO:LB:g=z
=124	=124	=124
(8GL	(16bbLL	.
.	16dd	.
8A	16cc	.
.	16aa	.
8BJ	16gg	.
.	16bJJ	.
=125	=125	=125
8cL	16ccLL	.
.	16aa	.
8d)	16gg	.
.	16b	.
8D'J	16a	.
.	16ff#JJ)	.
=126	=126	=126
(8GGL	(16bbLL	.
.	16dd	.
8AA	16cc	.
.	16aa	.
8BBJ	16gg	.
.	16bJJ	.
=127	=127	=127
8CL	16ccLL	.
.	16aa	.
8D)	16gg	.
.	16b	.
8DD'J	16a	.
.	16ff#JJ	.
=128	=128	=128
4.GG 4.G	4.g 4.gg)	.
==:|!	==:|!	==:|!
*-	*-	*-
!!!RDF**kern: > = above
!!!RDF**kern: < = below
!!!URL-vhv: https://verovio.humdrum.org/?file=scarlatti/sonatas/L154K235.krn
!!!URL-pdf: https://github.com/craigsapp/scarlatti-keyboard-sonatas/blob/master/reference-edition/L154K235.pdf
!!!PTL: Domenico Scarlatti: Opere complete per clavicembalo
!!!PED: Longo, Alessandro
!!!PPR: Ricordi
!!!PPP: Milan
!!!PDT: 1906-1913
!!!YEC: 2021 Craig Stuart Sapp
!!!YEM: Licence: (CC BY-NC-SA 4.0) https://creativecommons.org/licenses/by-nc-sa/4.0
!!!ENC: Craig Stuart Sapp
!!!END: 2005/07/19
!!!EED: Craig Stuart Sapp
!!!EEV: 2020/12/25
